X:1
T: The Duchess of Athole
C:Alexander Walker
R:Reel
Q: 232
K:Bm
M:4/4
L:1/8
|:c|dB B1/2B1/2B B2 F^G|AB cB AA, A,c|dB B1/2B1/2B B2 FD|EG F^A, B,1/2B,1/2B, B,c|
dB B1/2B1/2B B2 F^G|AB cB AA, A,c|dB B1/2B1/2B B2 FD|EG F^A, B,1/2B,1/2B, B,^a|
bB B1/2B1/2B dB fB|bB fB CA, E^A|bB B1/2B1/2B dB cA|FD EC B,1/2B,1/2B, B,^a|
bB B1/2B1/2B dB fB|bf ed cA Ac|df bd ce ac|dB cA BB, B,:|
